packages/dnb-eufemia/assets/icons/pin.svg

<svg width="16" height="16" viewBox="0 0 16 16" fill="none" xmlns="http://www.w3.org/2000/svg">
<path d="M1 14.9988L5.9835 10.0165M5.9835 10.0165L3.42716 7.4602C3.00094 7.03526 3.10274 6.29349 3.61392 5.99357C4.65577 5.38799 5.89099 5.20739 7.06262 5.48934L9.64914 1.42436C9.96473 0.928689 10.6876 0.856063 11.0971 1.26562L14.7344 4.90294C15.1498 5.31861 15.0638 6.04004 14.5751 6.35089L10.5107 8.93742C10.7926 10.109 10.612 11.3443 10.0065 12.3861C9.70654 12.8973 8.96478 12.9991 8.53983 12.5729L5.9835 10.0165Z" stroke="black" stroke-width="1.5" stroke-linecap="round" stroke-linejoin="round"/>
</svg>

<svg width="16" height="16" viewBox="0 0 16 16" fill="none" xmlns="http://www.w3.org/2000/svg"><path d="m1 14.999 4.984-4.982m0 0L3.427 7.46a.947.947 0 0 1 .187-1.466 4.683 4.683 0 0 1 3.449-.505l2.586-4.065a.948.948 0 0 1 1.448-.158l3.637 3.637a.948.948 0 0 1-.159 1.448l-4.064 2.586a4.682 4.682 0 0 1-.504 3.45c-.3.51-1.042.612-1.467.186l-2.556-2.556Z" stroke="#000" stroke-width="1.5" stroke-linecap="round" stroke-linejoin="round"/></svg>
